X:1
T:Maud Millar
R:reel
Z:Jack Gilder
M:C|
K:Edor
gf||edBA GEDE|~G2BG dGBd|~e2dB ~A2GA|1 Beed e2gf:|2 Beed e2ge||!
dega bg~g2|agef gage|dega bg~g2|ageg dg~g2|!
dega bg~g2|agef ~g3a|bgaf gfed|Beed e2||!
